incomeartour/img/icons/youtube.svg

<svg width="26" height="18" viewBox="0 0 26 18" fill="none" xmlns="http://www.w3.org/2000/svg">
<path d="M25.2605 4.00244C25.2605 4.00244 25.0164 2.27881 24.2644 1.52197C23.3123 0.525879 22.2478 0.520996 21.7595 0.462402C18.2634 0.208496 13.0144 0.208496 13.0144 0.208496H13.0046C13.0046 0.208496 7.75562 0.208496 4.25952 0.462402C3.77124 0.520996 2.70679 0.525879 1.75464 1.52197C1.00269 2.27881 0.763428 4.00244 0.763428 4.00244C0.763428 4.00244 0.509521 6.02881 0.509521 8.05029V9.94482C0.509521 11.9663 0.758545 13.9927 0.758545 13.9927C0.758545 13.9927 1.00269 15.7163 1.74976 16.4731C2.7019 17.4692 3.9519 17.4351 4.50854 17.5425C6.5105 17.7329 13.0095 17.7915 13.0095 17.7915C13.0095 17.7915 18.2634 17.7817 21.7595 17.5327C22.2478 17.4741 23.3123 17.4692 24.2644 16.4731C25.0164 15.7163 25.2605 13.9927 25.2605 13.9927C25.2605 13.9927 25.5095 11.9712 25.5095 9.94482V8.05029C25.5095 6.02881 25.2605 4.00244 25.2605 4.00244ZM10.4265 12.2446V5.21826L17.1794 8.74365L10.4265 12.2446Z" fill="#272727"/>
</svg>

<svg width="26" height="18" fill="none" xmlns="http://www.w3.org/2000/svg"><path d="M25.26 4.002s-.244-1.723-.996-2.48C23.312.526 22.248.521 21.76.462 18.264.208 13.014.208 13.014.208h-.01s-5.248 0-8.744.254c-.489.059-1.553.064-2.505 1.06-.752.757-.992 2.48-.992 2.48S.51 6.03.51 8.05v1.895c0 2.021.249 4.048.249 4.048s.244 1.723.99 2.48c.953.996 2.203.962 2.76 1.07 2.002.19 8.5.248 8.5.248s5.254-.01 8.75-.258c.489-.059 1.553-.064 2.505-1.06.752-.757.997-2.48.997-2.48s.248-2.022.248-4.048V8.05c0-2.021-.248-4.048-.248-4.048zm-14.834 8.243V5.218l6.753 3.526-6.752 3.5z" fill="#272727"/></svg>
